static/img/kroki/b379ec6990d9497ed81d5e6c53cdee72.svg

<?xml version="1.0" encoding="us-ascii" standalone="no"?><svg xmlns="http://www.w3.org/2000/svg" xmlns:xlink="http://www.w3.org/1999/xlink" contentStyleType="text/css" height="573px" preserveAspectRatio="none" style="width:385px;height:573px;" version="1.1" viewBox="0 0 385 573" width="385px" zoomAndPan="magnify"><defs/><g><!--class digitalocean_region--><g id="elem_digitalocean_region"><rect codeLine="23" fill="#3D176E" height="39.7891" id="digitalocean_region" rx="2.5" ry="2.5" style="stroke:#000D19;stroke-width:0.5;" width="205" x="83" y="528.16"/><ellipse cx="98" cy="548.0545" fill="#ADD1B2" rx="11" ry="11" style="stroke:#181818;stroke-width:1.0;"/><path d="M100.9688,553.6952 Q100.3906,553.992 99.75,554.1327 Q99.1094,554.2889 98.4063,554.2889 Q95.9063,554.2889 94.5781,552.6483 Q93.2656,550.992 93.2656,547.867 Q93.2656,544.742 94.5781,543.0858 Q95.9063,541.4295 98.4063,541.4295 Q99.1094,541.4295 99.75,541.5858 Q100.4063,541.742 100.9688,542.0389 L100.9688,544.7577 Q100.3438,544.1795 99.75,543.9139 Q99.1563,543.6327 98.5313,543.6327 Q97.1875,543.6327 96.5,544.7108 Q95.8125,545.7733 95.8125,547.867 Q95.8125,549.9608 96.5,551.0389 Q97.1875,552.1014 98.5313,552.1014 Q99.1563,552.1014 99.75,551.8358 Q100.3438,551.5545 100.9688,550.9764 L100.9688,553.6952 Z " fill="#000000"/><text fill="#D9B8FF" font-family="Helvetica" font-size="17" lengthAdjust="spacing" textLength="163" x="117" y="553.9398">digitalocean_region</text></g><!--class digitalocean_resource--><g id="elem_digitalocean_resource"><rect codeLine="26" fill="#3D176E" height="39.7891" id="digitalocean_resource" rx="2.5" ry="2.5" style="stroke:#000D19;stroke-width:0.5;" width="223" x="7" y="267.58"/><ellipse cx="22" cy="287.4745" fill="#ADD1B2" rx="11" ry="11" style="stroke:#181818;stroke-width:1.0;"/><path d="M24.9688,293.1152 Q24.3906,293.412 23.75,293.5527 Q23.1094,293.7089 22.4063,293.7089 Q19.9063,293.7089 18.5781,292.0683 Q17.2656,290.412 17.2656,287.287 Q17.2656,284.162 18.5781,282.5058 Q19.9063,280.8495 22.4063,280.8495 Q23.1094,280.8495 23.75,281.0058 Q24.4063,281.162 24.9688,281.4589 L24.9688,284.1777 Q24.3438,283.5995 23.75,283.3339 Q23.1563,283.0527 22.5313,283.0527 Q21.1875,283.0527 20.5,284.1308 Q19.8125,285.1933 19.8125,287.287 Q19.8125,289.3808 20.5,290.4589 Q21.1875,291.5214 22.5313,291.5214 Q23.1563,291.5214 23.75,291.2558 Q24.3438,290.9745 24.9688,290.3964 L24.9688,293.1152 Z " fill="#000000"/><text fill="#D9B8FF" font-family="Helvetica" font-size="17" lengthAdjust="spacing" textLength="181" x="41" y="293.3598">digitalocean_resource</text></g><!--class phantom_resource--><g id="elem_phantom_resource"><rect codeLine="29" fill="#3D176E" height="39.7891" id="phantom_resource" rx="2.5" ry="2.5" style="stroke:#000D19;stroke-width:0.5;" width="198" x="180.5" y="167.79"/><ellipse cx="195.5" cy="187.6845" fill="#ADD1B2" rx="11" ry="11" style="stroke:#181818;stroke-width:1.0;"/><path d="M198.4688,193.3252 Q197.8906,193.622 197.25,193.7627 Q196.6094,193.9189 195.9063,193.9189 Q193.4063,193.9189 192.0781,192.2783 Q190.7656,190.622 190.7656,187.497 Q190.7656,184.372 192.0781,182.7158 Q193.4063,181.0595 195.9063,181.0595 Q196.6094,181.0595 197.25,181.2158 Q197.9063,181.372 198.4688,181.6689 L198.4688,184.3877 Q197.8438,183.8095 197.25,183.5439 Q196.6563,183.2627 196.0313,183.2627 Q194.6875,183.2627 194,184.3408 Q193.3125,185.4033 193.3125,187.497 Q193.3125,189.5908 194,190.6689 Q194.6875,191.7314 196.0313,191.7314 Q196.6563,191.7314 197.25,191.4658 Q197.8438,191.1845 198.4688,190.6064 L198.4688,193.3252 Z " fill="#000000"/><text fill="#D9B8FF" font-family="Helvetica" font-size="17" lengthAdjust="spacing" textLength="156" x="214.5" y="193.5698">phantom_resource</text></g><!--class region--><g id="elem_region"><rect codeLine="32" fill="#3D176E" height="39.7891" id="region" rx="2.5" ry="2.5" style="stroke:#000D19;stroke-width:0.5;" width="95" x="219" y="367.37"/><ellipse cx="234" cy="387.2645" fill="#ADD1B2" rx="11" ry="11" style="stroke:#181818;stroke-width:1.0;"/><path d="M236.9688,392.9052 Q236.3906,393.202 235.75,393.3427 Q235.1094,393.4989 234.4063,393.4989 Q231.9063,393.4989 230.5781,391.8583 Q229.2656,390.202 229.2656,387.077 Q229.2656,383.952 230.5781,382.2958 Q231.9063,380.6395 234.4063,380.6395 Q235.1094,380.6395 235.75,380.7958 Q236.4063,380.952 236.9688,381.2489 L236.9688,383.9677 Q236.3438,383.3895 235.75,383.1239 Q235.1563,382.8427 234.5313,382.8427 Q233.1875,382.8427 232.5,383.9208 Q231.8125,384.9833 231.8125,387.077 Q231.8125,389.1708 232.5,390.2489 Q233.1875,391.3114 234.5313,391.3114 Q235.1563,391.3114 235.75,391.0458 Q236.3438,390.7645 236.9688,390.1864 L236.9688,392.9052 Z " fill="#000000"/><text fill="#D9B8FF" font-family="Helvetica" font-size="17" lengthAdjust="spacing" textLength="53" x="253" y="393.1498">region</text></g><!--class resource--><g id="elem_resource"><rect codeLine="35" fill="#3D176E" height="39.7891" id="resource" rx="2.5" ry="2.5" style="stroke:#000D19;stroke-width:0.5;" width="113" x="103" y="7"/><ellipse cx="118" cy="26.8945" fill="#ADD1B2" rx="11" ry="11" style="stroke:#181818;stroke-width:1.0;"/><path d="M120.9688,32.5352 Q120.3906,32.832 119.75,32.9727 Q119.1094,33.1289 118.4063,33.1289 Q115.9063,33.1289 114.5781,31.4883 Q113.2656,29.832 113.2656,26.707 Q113.2656,23.582 114.5781,21.9258 Q115.9063,20.2695 118.4063,20.2695 Q119.1094,20.2695 119.75,20.4258 Q120.4063,20.582 120.9688,20.8789 L120.9688,23.5977 Q120.3438,23.0195 119.75,22.7539 Q119.1563,22.4727 118.5313,22.4727 Q117.1875,22.4727 116.5,23.5508 Q115.8125,24.6133 115.8125,26.707 Q115.8125,28.8008 116.5,29.8789 Q117.1875,30.9414 118.5313,30.9414 Q119.1563,30.9414 119.75,30.6758 Q120.3438,30.3945 120.9688,29.8164 L120.9688,32.5352 Z " fill="#000000"/><text fill="#D9B8FF" font-family="Helvetica" font-size="17" lengthAdjust="spacing" textLength="71" x="137" y="32.7798">resource</text></g><!--reverse link digitalocean_resource to digitalocean_region--><g id="link_digitalocean_resource_digitalocean_region"><path codeLine="38" d="M127.945,324.9145 C140.305,372.6145 168.01,479.56 180.48,527.66 " fill="none" id="digitalocean_resource-backto-digitalocean_region" style="stroke:#FFAF37;stroke-width:2.0;"/><polygon fill="none" points="123.43,307.49,122.1369,326.4195,133.7532,323.4095,123.43,307.49" style="stroke:#FFAF37;stroke-width:2.0;"/></g><!--reverse link region to digitalocean_region--><g id="link_region_digitalocean_region"><path codeLine="39" d="M248.5501,423.454 C232.9801,453.974 210.9,497.27 195.31,527.83 " fill="none" id="region-backto-digitalocean_region" style="stroke:#FFAF37;stroke-width:2.0;"/><polygon fill="none" points="256.73,407.42,243.2055,420.7274,253.8948,426.1806,256.73,407.42" style="stroke:#FFAF37;stroke-width:2.0;"/></g><!--reverse link resource to digitalocean_resource--><g id="link_resource_digitalocean_resource"><path codeLine="40" d="M153.6693,64.6876 C146.0993,112.3976 129.2,218.98 121.57,267.08 " fill="none" id="resource-backto-digitalocean_resource" style="stroke:#FFAF37;stroke-width:2.0;"/><polygon fill="none" points="156.49,46.91,147.7434,63.7474,159.5952,65.6279,156.49,46.91" style="stroke:#FFAF37;stroke-width:2.0;"/></g><!--reverse link resource to phantom_resource--><g id="link_resource_phantom_resource"><path codeLine="41" d="M184.8241,61.4092 C207.8941,91.9292 241.88,136.9 264.97,167.47 " fill="none" id="resource-backto-phantom_resource" style="stroke:#FFAF37;stroke-width:2.0;"/><polygon fill="none" points="173.97,47.05,180.0377,65.0273,189.6105,57.7912,173.97,47.05" style="stroke:#FFAF37;stroke-width:2.0;"/></g><!--reverse link phantom_resource to region--><g id="link_phantom_resource_region"><path codeLine="42" d="M277.0459,225.951 C274.5559,263.721 270.26,329.05 267.78,366.88 " fill="none" id="phantom_resource-backto-region" style="stroke:#FFAF37;stroke-width:2.0;"/><polygon fill="none" points="278.23,207.99,271.0589,225.5563,283.0329,226.3457,278.23,207.99" style="stroke:#FFAF37;stroke-width:2.0;"/></g><!--SRC=[XP1DJy9048Rl_HMRS2O1YHOIBzZ4w8KOyMw6xcoxeTrfPhSI_FZlYaMpx9PodVV9-p6bbYYmRjnUr5Xla6rYjzeqm52B9JFjCgg8nKWfKBCq5E_9k8l02ceK3rYzeTCvXCHBgVEjGMl5bIVTGRujc5eZEtl7OEoFXCPvL5Q1jKldM6zQXruPkTZCbGh9q7GqazFq1YECM28VaSba8gUB4BaODRZxdrZhTnHJ_sahSXZLZ29-gS6M1y8h6GtzqyzsV08fjId4jNTxxZgnGJwvhqkGj3lG2YhhnrY7ZEJs3MRHAbpCfKfxuSTpS98VNYUaBhI3Yd84yyfOQ3BY8qc- -cLBBUVe0qq9nb7TgyLsfrI_-UtdU3pkwvKS_OQ08OzE2w5mG18jwhXZn3S0]--></g></svg>

<svg xmlns="http://www.w3.org/2000/svg" width="385" height="573" viewBox="0 0 385 573"><rect width="205" height="39.789" x="83" y="528.16" fill="#3D176E" rx="2.5" ry="2.5" style="stroke:#000d19;stroke-width:.5"/><circle cx="98" cy="548.054" r="11" fill="#ADD1B2" style="stroke:#181818;stroke-width:1"/><path d="M100.969 553.695q-.578.297-1.219.438-.64.156-1.344.156-2.5 0-3.828-1.64-1.312-1.657-1.312-4.782t1.312-4.781q1.328-1.657 3.828-1.657.703 0 1.344.157.656.156 1.219.453v2.719q-.625-.579-1.219-.844-.594-.281-1.219-.281-1.344 0-2.031 1.078-.687 1.062-.687 3.156t.687 3.172q.688 1.062 2.031 1.062.625 0 1.219-.265.594-.282 1.219-.86z"/><text x="117" y="553.94" fill="#D9B8FF" font-family="Helvetica" font-size="17" textLength="163">digitalocean_region</text><rect width="223" height="39.789" x="7" y="267.58" fill="#3D176E" rx="2.5" ry="2.5" style="stroke:#000d19;stroke-width:.5"/><circle cx="22" cy="287.474" r="11" fill="#ADD1B2" style="stroke:#181818;stroke-width:1"/><path d="M24.969 293.115q-.578.297-1.219.438-.64.156-1.344.156-2.5 0-3.828-1.64-1.312-1.657-1.312-4.782t1.312-4.781q1.328-1.656 3.828-1.656.703 0 1.344.156.656.156 1.219.453v2.719q-.625-.579-1.219-.844-.594-.281-1.219-.281-1.343 0-2.031 1.078-.687 1.062-.687 3.156t.687 3.172q.688 1.062 2.031 1.062.625 0 1.219-.265.594-.281 1.219-.86z"/><text x="41" y="293.36" fill="#D9B8FF" font-family="Helvetica" font-size="17" textLength="181">digitalocean_resource</text><rect width="198" height="39.789" x="180.5" y="167.79" fill="#3D176E" rx="2.5" ry="2.5" style="stroke:#000d19;stroke-width:.5"/><circle cx="195.5" cy="187.685" r="11" fill="#ADD1B2" style="stroke:#181818;stroke-width:1"/><path d="M198.469 193.325q-.578.297-1.219.438-.64.156-1.344.156-2.5 0-3.828-1.64-1.312-1.657-1.312-4.782t1.312-4.781q1.328-1.656 3.828-1.656.703 0 1.344.156.656.156 1.219.453v2.719q-.625-.578-1.219-.844-.594-.281-1.219-.281-1.344 0-2.031 1.078-.687 1.062-.687 3.156t.687 3.172q.688 1.062 2.031 1.062.625 0 1.219-.265.594-.281 1.219-.86z"/><text x="214.5" y="193.57" fill="#D9B8FF" font-family="Helvetica" font-size="17" textLength="156">phantom_resource</text><rect width="95" height="39.789" x="219" y="367.37" fill="#3D176E" rx="2.5" ry="2.5" style="stroke:#000d19;stroke-width:.5"/><circle cx="234" cy="387.264" r="11" fill="#ADD1B2" style="stroke:#181818;stroke-width:1"/><path d="M236.969 392.905q-.578.297-1.219.438-.64.156-1.344.156-2.5 0-3.828-1.64-1.312-1.657-1.312-4.782t1.312-4.781q1.328-1.656 3.828-1.656.703 0 1.344.156.656.156 1.219.453v2.719q-.625-.579-1.219-.844-.594-.281-1.219-.281-1.344 0-2.031 1.078-.687 1.062-.687 3.156t.687 3.172q.688 1.062 2.031 1.062.625 0 1.219-.265.594-.281 1.219-.86z"/><text x="253" y="393.15" fill="#D9B8FF" font-family="Helvetica" font-size="17" textLength="53">region</text><rect width="113" height="39.789" x="103" y="7" fill="#3D176E" rx="2.5" ry="2.5" style="stroke:#000d19;stroke-width:.5"/><circle cx="118" cy="26.895" r="11" fill="#ADD1B2" style="stroke:#181818;stroke-width:1"/><path d="M120.969 32.535q-.578.297-1.219.438-.64.156-1.344.156-2.5 0-3.828-1.64-1.312-1.657-1.312-4.782t1.312-4.781q1.328-1.656 3.828-1.656.703 0 1.344.156.656.156 1.219.453v2.719q-.625-.578-1.219-.844-.594-.281-1.219-.281-1.344 0-2.031 1.078-.687 1.062-.687 3.156t.687 3.172q.688 1.062 2.031 1.062.625 0 1.219-.265.594-.281 1.219-.86z"/><text x="137" y="32.78" fill="#D9B8FF" font-family="Helvetica" font-size="17" textLength="71">resource</text><g fill="none"><path d="M127.945 324.915c12.36 47.7 40.065 154.645 52.535 202.745" style="stroke:#ffaf37;stroke-width:2"/><path d="m123.43 307.49-1.293 18.93 11.616-3.01z" style="stroke:#ffaf37;stroke-width:2"/></g><g fill="none"><path d="M248.55 423.454c-15.57 30.52-37.65 73.816-53.24 104.376" style="stroke:#ffaf37;stroke-width:2"/><path d="m256.73 407.42-13.525 13.307 10.69 5.454z" style="stroke:#ffaf37;stroke-width:2"/></g><path fill="none" d="M153.67 64.688c-7.57 47.71-24.47 154.292-32.1 202.392m34.92-220.17-8.747 16.837 11.852 1.88zm28.334 14.5c23.07 30.52 57.056 75.49 80.146 106.06m-91-120.42 6.068 17.977 9.572-7.236z" style="stroke:#ffaf37;stroke-width:2"/><g fill="none"><path d="M277.046 225.951c-2.49 37.77-6.786 103.099-9.266 140.929" style="stroke:#ffaf37;stroke-width:2"/><path d="m278.23 207.99-7.171 17.566 11.974.79z" style="stroke:#ffaf37;stroke-width:2"/></g></svg>
